X:443
T:Orange and Blue
R:Highland Scottische
O:Scotland
B:Kerr's First p.20
S:Kerr's First
Z:Transcription, chords:Mike Long
M:4/4
L:1/8
K:D
a>g|\
"D"f<dd2 A<dd2|f>da>f d2d>f|\
"G"g<ee2 c<ee2|"A"c>Ae>c A2a>g|
"D"f<dd2 A<dd2|f>da>f d2 (3(fga)|\
"G"b>g"D"a>f "G"g>e"D"f>d|"A"e>c (3(ABc) "D"d2|]
a>g|\
"D"f<aa2 f<aa2|f>da>f d2d>f|\
"G"g<bb2 g<bb2|"G"g>eb>g "A"e2a>g|
"D"f<aa2 f<aa2|f>da>f d2 (3(fga)|\
"G"b>g"D"a>f "G"g>e"D"f>d|"A"e>c (3(ABc) "D"d2|]
